X:1
T:Title
%%score { ( 1 3 ) | ( 2 4 ) }
L:1/8
Q:1/4=100
M:6/8
K:C
V:1 treble nm="Grand Piano"
V:3 treble 
V:2 bass 
V:4 bass 
V:1
 [EG][_E^F][=EG] [Ec][EG]E | GFF F3 | BBB [Fd][Ec][DB] | [Ec][GB][FA] [EG]3 | %4
w: J.~Howard~Entwisle * * * * *||||
 [EG][_E^F][=EG] [Ec][EG]E | FFG A3 | cBA GEc | [DB][Ec][Fd] [Ec]3 | [Ec][Ec][Ec] [Ec] .[EG]2 | %9
w: |||||
 ccc c .c2 | [EG][EG][EG] [FA][EG]E | z3 G3 | [EG][_E^F][=EG] [Ec][EG]E | FFG A3 | cBA GEc | %15
w: ||||||
[M:7/4] [DB][Ec][Fd] [Ec]3 z2 z2 z4 |] %16
w: |
V:2
 [C,C][C,C][C,C] [C,G,][C,C][C,G,C] | [G,E][G,B,D][G,B,D] [G,B,D]3 | %2
 [G,D][G,D][G,D] [G,,G,][G,,G,][G,,G,] | [C,G,][C,C][C,C] [C,C]3 | %4
 [C,C][C,C][C,C] [C,G,][C,C][_B,C] | [A,C][A,C][G,CE] [F,CF]3 | %6
 [^F,A,_E][F,B,E][F,CE] [G,C=E][G,C][G,E] | [G,,G,][G,,G,][G,,G,] [C,G,]3 | %8
 [C,G,][C,G,][C,G,] [C,G,] .[C,C]2 | [F,A,F][F,A,F][F,A,F] [F,A,F] .[F,CF]2 | %10
 [C,C][C,C][C,C] [C,C][C,C][C,G,C] | G,3- [G,-B,D]2 [G,D] | [C,C][C,C][C,C] [C,G,][C,C][_B,C] | %13
 [A,C][A,C][G,CE] [F,CF]3 | [^F,A,_E][F,B,E][F,CE] [G,C=E][G,C][G,E] | %15
[M:7/4] [G,,G,][G,,G,][G,,G,] [C,G,]3 z2 z2 z4 |] %16
V:3
 x6 | x6 | x6 | x6 | x6 | x6 | x6 | x6 | x6 | x6 | x6 | D3 z2 F | x6 | x6 | x6 |[M:7/4] x14 |] %16
V:4
 x6 | x6 | x6 | x6 | x6 | x6 | x6 | x6 | x6 | x6 | x6 | B,3 z3 | x6 | x6 | x6 |[M:7/4] x14 |] %16

